images/editable/434.svg

<svg width="400" height="200" xmlns="http://www.w3.org/2000/svg">
 <!-- Created with Method Draw - http://github.com/duopixel/Method-Draw/ -->

 <g>
  <title>background</title>
  <rect fill="#FFFFFF" opacity="0" id="canvas_background" height="202" width="402" y="-1" x="-1"/>
  <g display="none" overflow="visible" y="0" x="0" height="100%" width="100%" id="canvasGrid">
   <rect fill="url(#gridpattern)" stroke-width="0" y="0" x="0" height="100%" width="100%"/>
  </g>
 </g>
 <g>
  <title>Layer 1</title>
  <g stroke="null" id="svg_78">
   <path fill="#211e1e" fill-rule="nonzero" id="svg_75" d="m64.38703,133.28999l214.77473,0l59.05992,-33.05438l-59.05992,-33.09082l-214.77473,0l0,66.1452"/>
   <path fill="#f58228" fill-rule="nonzero" id="svg_74" d="m68.41216,129.31587l209.68413,0l30.59544,-29.08755l-30.59544,-29.11673l-209.68413,0l0,58.20427"/>
   <path fill="#f58228" fill-rule="nonzero" id="svg_73" d="m153.09528,109.67138c-0.92489,-1.5386 -1.40584,-3.98139 -1.40584,-7.3284c0,-3.12824 0.42915,-5.46166 1.29484,-7.10964c0.8065,-1.58966 2.20496,-2.38448 4.14352,-2.43551c1.8276,0 3.23342,0.78752 4.25452,2.38446c0.96929,1.58966 1.45763,3.97411 1.45763,7.10965c0,3.28867 -0.48834,5.73146 -1.40584,7.3211c-0.91748,1.64797 -2.41951,2.44281 -4.52088,2.44281c-1.62041,0 -2.90785,-0.79484 -3.81795,-2.38448"/>
  </g>
  <text xml:space="default" dominant-baseline="middle" text-anchor="middle" font-family="sans-serif" font-size="25" id="svg_12" y="110" x="180" stroke-width="0" stroke="#000" fill="#000000">param(text1)</text>
 </g>
</svg>

<?xml version="1.0" encoding="UTF-8" standalone="no"?>
<svg
   xmlns:dc="http://purl.org/dc/elements/1.1/"
   xmlns:cc="http://creativecommons.org/ns#"
   xmlns:rdf="http://www.w3.org/1999/02/22-rdf-syntax-ns#"
   xmlns:svg="http://www.w3.org/2000/svg"
   xmlns="http://www.w3.org/2000/svg"
   xmlns:sodipodi="http://sodipodi.sourceforge.net/DTD/sodipodi-0.dtd"
   xmlns:inkscape="http://www.inkscape.org/namespaces/inkscape"
   width="145"
   height="37"
   version="1.1"
   id="svg919"
   sodipodi:docname="434.svg"
   inkscape:version="1.0.2 (e86c870879, 2021-01-15, custom)">
  <metadata
     id="metadata925">
    <rdf:RDF>
      <cc:Work
         rdf:about="">
        <dc:format>image/svg+xml</dc:format>
        <dc:type
           rdf:resource="http://purl.org/dc/dcmitype/StillImage" />
        <dc:title></dc:title>
      </cc:Work>
    </rdf:RDF>
  </metadata>
  <defs
     id="defs923" />
  <sodipodi:namedview
     pagecolor="#ffffff"
     bordercolor="#666666"
     borderopacity="1"
     objecttolerance="10"
     gridtolerance="10"
     guidetolerance="10"
     inkscape:pageopacity="0"
     inkscape:pageshadow="2"
     inkscape:window-width="1920"
     inkscape:window-height="1017"
     id="namedview921"
     showgrid="false"
     inkscape:zoom="4.6068007"
     inkscape:cx="87.716044"
     inkscape:cy="45.166474"
     inkscape:window-x="3832"
     inkscape:window-y="-8"
     inkscape:window-maximized="1"
     inkscape:current-layer="svg919" />
  <!-- Created with Method Draw - http://github.com/duopixel/Method-Draw/ -->
  <g
     id="g908">
    <title
       id="title902">background</title>
    <rect
       fill="#ffffff"
       opacity="0"
       id="canvas_background"
       height="202"
       width="402"
       y="-1"
       x="-1" />
    <g
       display="none"
       overflow="visible"
       y="0"
       x="0"
       height="100%"
       width="100%"
       id="canvasGrid">
      <rect
         fill="url(#gridpattern)"
         stroke-width="0"
         y="0"
         x="0"
         height="100%"
         width="100%"
         id="rect905" />
    </g>
  </g>
  <g
     id="g917"
     transform="matrix(0.52600622,0,0,0.52600622,-33.348485,-34.147874)">
    <title
       id="title910">Layer 1</title>
    <g
       stroke="null"
       id="svg_78">
      <path
         fill="#211e1e"
         fill-rule="nonzero"
         id="svg_75"
         d="M 64.38703,133.28999 H 279.16176 L 338.22168,100.23561 279.16176,67.14479 H 64.38703 v 66.1452" />
      <path
         fill="#f58228"
         fill-rule="nonzero"
         id="svg_74"
         d="M 68.41216,129.31587 H 278.09629 L 308.69173,100.22832 278.09629,71.11159 H 68.41216 v 58.20427" />
      <path
         fill="#f58228"
         fill-rule="nonzero"
         id="svg_73"
         d="m 153.09528,109.67138 c -0.92489,-1.5386 -1.40584,-3.98139 -1.40584,-7.3284 0,-3.12824 0.42915,-5.46166 1.29484,-7.10964 0.8065,-1.58966 2.20496,-2.38448 4.14352,-2.43551 1.8276,0 3.23342,0.78752 4.25452,2.38446 0.96929,1.58966 1.45763,3.97411 1.45763,7.10965 0,3.28867 -0.48834,5.73146 -1.40584,7.3211 -0.91748,1.64797 -2.41951,2.44281 -4.52088,2.44281 -1.62041,0 -2.90785,-0.79484 -3.81795,-2.38448" />
    </g>
    <text
       xml:space="default"
       dominant-baseline="middle"
       text-anchor="middle"
       font-family="sans-serif"
       font-size="25px"
       id="svg_12"
       y="110"
       x="180"
       stroke-width="0"
       stroke="#000000"
       fill="#000000">param(text1)</text>
  </g>
</svg>
